!!!!SEGMENT: pl-kk--kk-i-382--065_anonim--offertorium-nro-6.krn
!!!cenid: 18xx:1567
!!!COM: Anonim
!!!COM-rismid: pe30004985
!!!CDT:
!!!CNT:
!!!OTL: Offertorium Nro 6
!!!PDT:
!!!AGN: Sacred
!!!SMS-siglum: PL-Kk
!!!SMS-shelfmark: Kk.I.382
!!!SMS-shelfwork: 065 W
!!!SMS-variant:
!!!SMS-altvar:
!!!NIFC-rismid: 1001141097
!!!URL-scan: http://repozytorium.nifc.pl/skany/pl-kk-nut--i-382
!!!ONB-nifc: UWAGA: Offertoria od skanu 0043 (S/T1), 0115 (T2), 0187 (A/B1), 0262 (B2)
**kern	**text	**dynam	**kern	**text	**kern	**text	**kern	**text
*part4	*part4	*part4	*part3	*part3	*part2	*part1	*part1	*part1
*staff4	*staff4	*	*staff3	*staff3	*staff2	*staff1	*staff1	*staff1
*I"Basso II	*	*	*I"Tenor II	*	*I"Alto vel Bas I	*	*I"Soprano vel. Tenor I	*
*I'B.II	*	*	*I'T.II	*	*I'A./B.I	*	*I'S./T.I	*
*clefF4	*	*	*clefC4	*	*clefC3	*	*clefC1	*
*k[b-]	*	*	*k[b-]	*	*k[b-]	*	*k[b-]	*
*B-:	*	*	*B-:	*	*B-:	*	*B-:	*
*M3/2	*	*	*M3/2	*	*M3/2	*	*M3/2	*
=1	=1	=1	=1	=1	=1	=1	=1	=1
*2\right	*	*	*2\right	*	*2\right	*	*rscale:1/2	*
!	!	!	!	!	!	!	!LO:TX:a:t=in G mol.	!
!	!	!	!	!	!LO:TX:t=P:problem:all\right:global	!	!LO:TX:t=P:problem:all\right:global	!
!LO:TX:t=P:problem:all\right:global	!	!	!LO:TX:t=P:problem:all\right:global	!	!LO:TX:a:t=in G mol.	!	!LO:TX:t=P:problem:w źródle metrum 3/4, ze względu na pozostałe głosy podnoszę do 3/2	!
2G\	E-	.	2B-\	E-	2g\	E-	2dd\	E-
2G\	-xul-	.	2B-\	-xul-	2g\	-xul-	2dd\	-xul-
2D\	-tet	.	2A\	-tet	2f#X\	-tet	2dd\	-tet
=2	=2	=2	=2	=2	=2	=2	=2	=2
(2.G\	or-	.	(2B-\	or-	2g\	or-	(4dd\L	or-
.	.	.	.	.	.	.	4cc\	.
.	.	.	4A\	.	4d\	.	4b-\	.
8F\L	.	.	4G\)	.	4e-X\	.	4cc\)J	.
8E-X\J)	.	.	.	.	.	.	.	.
2D\	-bis	.	2F/	-bis	2fn\	-bis	(4dd\L	-bis
.	.	.	.	.	.	.	4cc\)J	.
=3	=3	=3	=3	=3	=3	=3	=3	=3
(4E-X\	gau-	.	1B-\	gau-	2g\	gau-	2b-\	gau-
4D\	.	.	.	.	.	.	.	.
*	*	*	*	*	*	*	*2\right	*
2C/)	.	.	.	.	2e-X\	-di-	1cc\	-di-
2C/	-di-	.	2A\	-di-	2e-\	.	.	.
=4	=4	=4	=4	=4	=4	=4	=4	=4
1.BB-/	-is	.	1.B-\	-is	1.f\	-is	1.dd\	-is
!	!	!	!	!	!LO:LB:g=original	!	!	!
=5	=5	=5	=5	=5	=5	=5	=5	=5
2BB-/	ce-	.	2B-\	ce-	2f\	ce-	2dd\	ce-
2F\	-lum	.	2A\	-lum	2f\	-lum	2cc\	-lum
2D\	re-	.	2B-\	re-	2f\	re-	2dd\	re-
!LO:LB:g=original	!	!	!	!	!	!	!LO:LB:g=original	!
=6	=6	=6	=6	=6	=6	=6	=6	=6
(2.G\	-sul-	.	1G/	-sul-	2.g\	-sul-	(4b-\L	-sul-
.	.	.	.	.	.	.	4a\	.
.	.	.	.	.	.	.	4b-\	.
4A\)	.	.	.	.	8f\L	.	4cc\)J	.
.	.	.	.	.	8e-X\J	.	.	.
2B-\	-tet	.	2F/	-tet	(4d\	-tet	2dd\	-tet
.	.	.	.	.	4e-\)	.	.	.
=7	=7	=7	=7	=7	=7	=7	=7	=7
(4F\	lau-	.	1A\	lau-	(2f\	lau-	1dd\	lau-
4G\	.	.	.	.	.	.	.	.
2.A\)	.	.	.	.	2en\)	.	.	.
.	.	.	2A\	-di-	2e\	-di-	2cc#X\	-di-
4AA/	-di-	.	.	.	.	.	.	.
!	!	!	!LO:LB:g=original	!	!	!	!	!
=8	=8	=8	=8	=8	=8	=8	=8	=8
1.D\	-bus	.	1.A\	-bus	1.f#X\	-bus,	1.dd\	-bus,
=9	=9	=9	=9	=9	=9	=9	=9	=9
2D\	a-	.	2A\	a-	2fn\	a-	2dd\	a-
2D\	-po-	.	2A\	-po-	2f\	-po-	2dd\	-po-
2E-X\	-sto-	.	2G/	-sto-	(4e-X\	-sto-	(4cc\L	-sto-
.	.	.	.	.	4d\)	.	4b-\)J	.
!	!	!	!	!	!LO:TX:b:t=V&colon;S&colon;	!	!	!
!	!	!	!	!	!LO:PB:g=original	!	!	!
=10	=10	=10	=10	=10	=10	=10	=10	=10
(2.F\	-lo-	.	4A/	-lo-	2.c\	-lo-	(2.a\	-lo-
.	.	.	4G/	.	.	.	.	.
.	.	.	2.F/	.	.	.	.	.
4F\	.	.	.	.	4B-\	.	4g\L	.
4E-X\	.	.	.	.	4c\	.	4a\	.
4D\	.	.	4F/	-rum	4d\	.	4b-\J	.
=11	=11	=11	=11	=11	=11	=11	=11	=11
2.C\	.	.	4G/	glo-	2.e-X\	.	2.cc\	.
.	.	.	8A/L	.	.	.	.	.
.	.	.	8B-/J	.	.	.	.	.
.	.	.	2c\	.	.	.	.	.
4D\	.	.	.	.	4f\	.	8b-\L	.
.	.	.	.	.	.	.	8a\J)	.
2E-X\)	-rum	.	2B-\	.	2g\	.	2g\	-rum
!	!	!	!	!	!	!	!LO:LB:g=original	!
=12	=12	=12	=12	=12	=12	=12	=12	=12
(2C/	glo-	.	2c\	.	2e-X\	-rum	1cc\	glo-
2G\)	.	.	2.d\	.	2.d\	glo-	.	.
2GG/	-ri-	.	.	.	.	.	2bn\	-ri-
.	.	.	4G/	-ri-	4d\	-ri-	.	.
!LO:LB:g=original	!	!	!	!	!	!	!	!
=13	=13	=13	=13	=13	=13	=13	=13	=13
1.C/	-am	.	1.G/	-am	1.en\	-am,	1.cc\	-a,
=14	=14	=14	=14	=14	=14	=14	=14	=14
2C/	tel-	.	2G/	tel-	2e\	tel-	2cc\	tel-
2BB-/	-lus	.	2G/	-lus	2e\	-lus	2dd\	-lus
2AA/	et	.	2A/	et	2f#X\	et	2cc\	et
=15	=15	=15	=15	=15	=15	=15	=15	=15
1GG/	as-	.	1B-\	as-	1g\	as-	1dd\	as-
2GG/	-tra	.	2B-\	-tra	2g\	-tra	2dd\	-tra
!	!	!	!LO:LB:g=original	!	!LO:LB:g=original	!	!	!
=16	=16	=16	=16	=16	=16	=16	=16	=16
2G\	tel-	.	2G/	tel-	2d\	tel-	2b-\	tel-
2F\	-lus	.	2A/	-lus	2d\	-lus	2b-\	-lus
2E-X\	et	.	2G/	et	2e-X\	et	2cc\	et
=17	=17	=17	=17	=17	=17	=17	=17	=17
2D\	a-	.	2A/	as-	(2f#X\	a-	2dd\	a-
(4D/	-stra	.	2A/	-tra	2d\)	-stra	(2a\	.
4C/)	.	.	.	.	.	.	.	.
2BB-/	et	.	2G/	et	2g\	.	2b-\)	.
!	!	!	!	!	!	!	!LO:LB:g=original	!
=18	=18	=18	=18	=18	=18	=18	=18	=18
(2.C/	a-	.	1G/	as-	2.e-X\	a-	4g\	.
.	.	.	.	.	.	.	8a\L	.
.	.	.	.	.	.	.	8b-\J	.
.	.	.	.	.	.	.	2.cc\	.
4D/)	.	.	.	.	4f\	.	.	.
2E-X\	-stra	.	2e-X\	-tra	2g\	-stra	.	.
.	.	.	.	.	.	.	4g\	.
!LO:TX:b:t=V&colon;S&colon;	!	!	!	!	!	!	!	!
!LO:PB:g=original	!	!	!	!	!	!	!	!
=19	=19	=19	=19	=19	=19	=19	=19	=19
2BB-/	con-	.	2d\	con-	1g\	con-	2b-\	-stra
2.D/	.	.	2d\	.	.	.	2.a\	con-
.	.	.	2d\	-ci-	2f#X\	-ci-	.	.
4D/	-ci-	.	.	.	.	.	4a\	-ci-
=20	=20	=20	=20	=20	=20	=20	=20	=20
1.GG/	-nunt.	.	1.d\	-nunt.	1.g\	-nunt,	1.bn\	-nunt,
=21|!	=21|!	=21|!	=21|!	=21|!	=21|!	=21|!	=21||	=21||
2D\	vos	.	2d\	Vos	2fn\	vos	2a\	vos
2D\	se-	.	2A\	se-	2f\	se-	2a\	se-
2D\	-cu-	.	2F/	-cu-	2f\	-cu-	2b-\	-cu-
!	!	!	!	!	!LO:LB:g=original	!	!	!
=22	=22	=22	=22	=22	=22	=22	=22	=22
1C/	-lo-	.	1G/	-lo-	1e-X\	-lo-	1b-\	-lo-
2C/	-rum	.	2c\	-rum	2e-\	-rum	2a\	-rum
=23	=23	=23	=23	=23	=23	=23	=23	=23
2.BB-/	ju-	.	2.d\	ju-	2.f\	ju-	2.b-\	ju-
4BB-/	-di-	.	4d\	-di-	4f\	-di-	4b-\	-di-
2BB-/	-ces	.	2d\	-ces	2f\	-ces	2b-\	-ces
!	!	!	!LO:LB:g=original	!	!	!	!LO:LB:g=original	!
=24	=24	=24	=24	=24	=24	=24	=24	=24
2B-\	et	.	2B-\	et	2f\	et	2dd\	et
2B-\	ve-	.	2d\	ve-	2f\	ve-	2dd\	ve-
2B-\	-ra	.	2B-\	-ra	2f\	-ra	2dd\	-ra
=25	=25	=25	=25	=25	=25	=25	=25	=25
(2A\	cor-	.	1c\	mun-	1f\	mun-	1cc\	mun-
2F\)	.	.	.	.	.	.	.	.
2B-\	-dis	.	2B-\	-di	2f\	-di	2dd\	-di
!LO:LB:g=original	!	!	!	!	!	!	!	!
=26	=26	=26	=26	=26	=26	=26	=26	=26
1G\	lu-	.	1d\	lu-	1f\	lu-	1b-\	lu-
2G\	-mi-	.	2G/	-mi-	2en\	-mi-	2b-\	-mi-
=27	=27	=27	=27	=27	=27	=27	=27	=27
1.F\	-na	.	1.A\	-na	1.f\	-na	1.cc\	-na
!	!	!	!	!	!LO:LB:g=original	!	!	!
=28	=28	=28	=28	=28	=28	=28	=28	=28
!LO:TX:a:t=Solo.	!	!LO:DY:b:t=p.	!	!	!	!	!	!
2F\	vo-	p	2F/	vo-	2f\	vo-	2a\	vo-
2F\	-tis	.	2F/	-tis	2f\	-tis	2a\	-tis
2F\	pre-	.	2F/	pre-	2f\	pre-	2a\	pre-
=29	=29	=29	=29	=29	=29	=29	=29	=29
1G\	-ca-	.	1G/	-ca-	(2f\	-ca-	1b-X\	-ca-
.	.	.	.	.	2e-X\)	.	.	.
2G\	-mur	.	2G/	-mur	2e-\	-mur	2b-\	-mur
=30	=30	=30	=30	=30	=30	=30	=30	=30
2.A\	cor-	.	2.A\	cor-	2.f\	cor-	2.cc\	cor-
4A\	-di-	.	4A\	-di-	4f\	-di-	4cc\	-di-
2A\	-um	.	2A\	-um	2f\	-um	2cc\	-um
!	!	!	!	!	!	!	!LO:LB:g=original	!
=31	=31	=31	=31	=31	=31	=31	=31	=31
2B-\	au-	.	2B-\	au-	2f\	au-	2dd\	au-
2d\	-di-	.	2d\	-di-	2f\	-di-	2b-\	-di-
2B-\	-te	.	2B-\	-te	2f\	-te	2dd\	-te
=32	=32	=32	=32	=32	=32	=32	=32	=32
2.e-X\	vo-	.	(2.e-X\	vo-	1g\	vo-	1b-\	vo-
4d\	.	.	4d\)	.	.	.	.	.
2c\	-ces	.	2c\	-ces	2g\	-ces	(4cc\	-ces
.	.	.	.	.	.	.	4b-\)	.
!LO:LB:g=original	!	!	!LO:LB:g=original	!	!	!	!	!
=33	=33	=33	=33	=33	=33	=33	=33	=33
1d\	su-	.	1d\	su-	1g\	su-	1a\	su-
2D\	-pli-	.	2D/	-pli-	2f#X\	-pli-	2a\	-pli-
!	!	!	!	!	!LO:LB:g=original	!	!	!
=34	=34	=34	=34	=34	=34	=34	=34	=34
1.G\	-cum	.	1.G/	-cum	1.g\	-cum	1.bn\	-cum
=35|!	=35|!	=35|!	=35	=35	=35	=35	=35	=35
!	!	!LO:DY:b:t=f.	!	!	!	!	!	!
2G\	vo-	f	2B-\	vo-	2g\	vo-	2dd\	vo-
2G\	-tis	.	2B-\	-tis	2g\	-tis	2dd\	-tis
2G\	pre-	.	2B-\	pre-	2g\	pre-	2dd\	pre-
=36	=36	=36	=36	=36	=36	=36	=36	=36
1A\	-ca-	.	1c\	-ca-	(2g\	-ca-	(2.cc\	-ca-
.	.	.	.	.	2fn\)	.	.	.
.	.	.	.	.	.	.	4dd\)	.
2A\	-mur	.	2c\	-mur	2f\	-mur	2ee-X\	-mur
=37	=37	=37	=37	=37	=37	=37	=37	=37
2.B-\	cor-	.	2.B-\	cor-	2.f\	cor-	2.ee-X\	cor-
4BB-/	-di-	.	4c\	-di-	4f\	-di-	4dd\	-di-
2BB-/	-um	.	2d\	-um	2f\	-um	2dd\	-um
!	!	!	!	!	!	!	!LO:LB:g=original	!
=38	=38	=38	=38	=38	=38	=38	=38	=38
2D\	au-	.	2d\	au-	2f\	au-	2b-\	au-
2D\	-di-	.	2B-\	-di-	2f\	-di-	2b-\	-di-
2D\	-te	.	2d\	-te	2f\	-te	2b-\	-te
=39	=39	=39	=39	=39	=39	=39	=39	=39
(2.E-X\	vo-	.	1B-\	vo-	(2.g\	vo-	(2.b-\	vo-
8D\L	.	.	.	.	8f\L	.	4cc\)	.
8C\J)	.	.	.	.	8e-X\J)	.	.	.
2BB-/	-ces	.	2B-\	-ces	2d\	-ces	2dd\	-ces
!LO:LB:g=original	!	!	!	!	!LO:LB:g=original	!	!	!
=40	=40	=40	=40	=40	=40	=40	=40	=40
2E-X\	su-	.	1B-\	su-	(2g\	su-	1cc\	su-
2F\	.	.	.	.	2f\)	.	.	.
2FF/	-pli-	.	2A\	-pli-	2f\	-pli-	2cc\	-pli-
!	!	!	!LO:LB:g=original	!	!	!	!	!
=41	=41	=41	=41	=41	=41	=41	=41	=41
1.BB-/	-cum	.	1.B-\	-cum	1.f\	-cum	1.dd\	-cum
=42	=42	=42	=42	=42	=42	=42	=42	=42
2BBn/	au-	.	2G/	au-	2f\	au-	2dd\	au-
2BB/	-di-	.	2G/	-di-	2f\	-di-	2dd\	-di-
2BB/	-te	.	2G/	-te	2f\	-te	2dd\	-te
=43	=43	=43	=43	=43	=43	=43	=43	=43
1C/	vo-	.	1G/	vo-	1e-X\	vo-	1cc\	vo-
2GG/	-ces	.	2G/	-ces	2d\	-ces	2b-X\	-ces
=44	=44	=44	=44	=44	=44	=44	=44	=44
(2C/	su-	.	1G/	su-	(2e-X\	su-	1a\	su-
2.D\)	.	.	.	.	2d\)	.	.	.
.	.	.	2F#X/	-pli-	2d\	-pli-	2a\	-pli-
4D\	-pli-	.	.	.	.	.	.	.
=45	=45	=45	=45	=45	=45	=45	=45	=45
1.GG/	-cum.	.	1.G/	-cum.	1.d\	-cum.	1.bn\	-cum.
==	==	==	==	==	==	==	==	==
*-	*-	*-	*-	*-	*-	*-	*-	*-
!!!system-decoration: [(s1,s2,s3,s4)]
!!!EED: Leszek Kubiak
!!!EST: 2021-02-15
!!!ENC: Andrzej Gręziak
!!!END: 2021-01-31
